autocorrect.cube
LUT_3D_SIZE 5
DOMAIN_MIN 0.000000 0.000000 0.000000
DOMAIN_MAX 0.903226 0.903226 0.903226
0.0000000000 0.0000000000 0.0000000000
0.4117647059 0.0000000000 0.0000000000
0.7803921569 0.0000000000 0.0000000000
1.0000000000 0.0000000000 0.0000000000
1.0000000000 0.0000000000 0.0000000000
0.0000000000 0.3568627451 0.0000000000
0.3098039216 0.3254901961 0.0000000000
0.7333333333 0.2392156863 0.0000000000
1.0000000000 0.0549019608 0.0000000000
1.0000000000 0.0000000000 0.0000000000
0.0000000000 0.6823529412 0.0000000000
0.0000000000 0.6666666667 0.0000000000
0.6078431373 0.6352941176 0.0000000000
0.9725490196 0.5843137255 0.0000000000
1.0000000000 0.5372549020 0.0000000000
0.0000000000 0.9529411765 0.0000000000
0.0000000000 0.9450980392 0.0000000000
0.3607843137 0.9176470588 0.0000000000
0.8470588235 0.8862745098 0.0000000000
1.0000000000 0.8588235294 0.0000000000
0.0000000000 1.0000000000 0.0000000000
0.0000000000 1.0000000000 0.0000000000
0.0039215686 1.0000000000 0.0000000000
0.7254901961 1.0000000000 0.0000000000
0.9960784314 1.0000000000 0.0000000000
0.0000000000 0.0000000000 0.3372549020
0.3960784314 0.0000000000 0.3294117647
0.7725490196 0.0000000000 0.3215686275
1.0000000000 0.0000000000 0.3098039216
1.0000000000 0.0000000000 0.3019607843
0.0000000000 0.3137254902 0.2705882353
0.2862745098 0.2784313725 0.2666666667
0.7254901961 0.1764705882 0.2549019608
1.0000000000 0.0156862745 0.2392156863
1.0000000000 0.0000000000 0.2274509804
0.0000000000 0.6588235294 0.0235294118
0.0000000000 0.6470588235 0.0235294118
0.5960784314 0.6117647059 0.0156862745
0.9647058824 0.5568627451 0.0117647059
1.0000000000 0.5019607843 0.0039215686
0.0000000000 0.9372549020 0.0000000000
0.0000000000 0.9294117647 0.0000000000
0.3411764706 0.9019607843 0.0000000000
0.8392156863 0.8666666667 0.0000000000
1.0000000000 0.8392156863 0.0000000000
0.0000000000 1.0000000000 0.0000000000
0.0000000000 1.0000000000 0.0000000000
0.0000000000 1.0000000000 0.0000000000
0.7137254902 1.0000000000 0.0000000000
0.9960784314 1.0000000000 0.0000000000
0.0000000000 0.0000000000 0.6470588235
0.3568627451 0.0000000000 0.6470588235
0.7529411765 0.0000000000 0.6431372549
1.0000000000 0.0000000000 0.6392156863
1.0000000000 0.0000000000 0.6313725490
0.0000000000 0.1764705882 0.6196078431
0.2274509804 0.1137254902 0.6156862745
0.7058823529 0.0117647059 0.6117647059
1.0000000000 0.0000000000 0.6039215686
1.0000000000 0.0000000000 0.6000000000
0.0000000000 0.6117647059 0.5372549020
0.0000000000 0.5960784314 0.5372549020
0.5686274510 0.5529411765 0.5294117647
0.9490196078 0.4901960784 0.5254901961
1.0000000000 0.4313725490 0.5176470588
0.0000000000 0.9019607843 0.4039215686
0.0000000000 0.8941176471 0.4000000000
0.2901960784 0.8666666667 0.3921568627
0.8235294118 0.8313725490 0.3843137255
1.0000000000 0.8000000000 0.3764705882
0.0000000000 1.0000000000 0.2470588235
0.0000000000 1.0000000000 0.2431372549
0.0000000000 1.0000000000 0.2274509804
0.6941176471 1.0000000000 0.2156862745
0.9843137255 1.0000000000 0.1960784314
0.0000000000 0.0000000000 0.9058823529
0.2941176471 0.0000000000 0.9019607843
0.7254901961 0.0000000000 0.9019607843
1.0000000000 0.0000000000 0.8980392157
1.0000000000 0.0000000000 0.8941176471
0.0000000000 0.0000000000 0.8823529412
0.1137254902 0.0000000000 0.8823529412
0.6745098039 0.0000000000 0.8784313725
1.0000000000 0.0000000000 0.8745098039
1.0000000000 0.0000000000 0.8705882353
0.0000000000 0.5372549020 0.8313725490
0.0000000000 0.5137254902 0.8274509804
0.5333333333 0.4627450980 0.8274509804
0.9294117647 0.3921568627 0.8196078431
1.0000000000 0.3176470588 0.8196078431
0.0000000000 0.8549019608 0.7529411765
0.0000000000 0.8431372549 0.7529411765
0.2078431373 0.8156862745 0.7490196078
0.7960784314 0.7764705882 0.7450980392
1.0000000000 0.7450980392 0.7411764706
0.0000000000 1.0000000000 0.6862745098
0.0000000000 1.0000000000 0.6823529412
0.0000000000 1.0000000000 0.6784313725
0.6627450980 0.9882352941 0.6745098039
0.9647058824 0.9607843137 0.6705882353
0.0000000000 0.0000000000 1.0000000000
0.2274509804 0.0000000000 1.0000000000
0.7058823529 0.0000000000 1.0000000000
1.0000000000 0.0000000000 1.0000000000
1.0000000000 0.0000000000 1.0000000000
0.0000000000 0.0000000000 1.0000000000
0.0313725490 0.0000000000 1.0000000000
0.6509803922 0.0000000000 1.0000000000
0.9882352941 0.0000000000 1.0000000000
1.0000000000 0.0000000000 1.0000000000
0.0000000000 0.4588235294 1.0000000000
0.0000000000 0.4352941176 1.0000000000
0.4980392157 0.3764705882 1.0000000000
0.9137254902 0.2784313725 1.0000000000
1.0000000000 0.1607843137 0.9960784314
0.0000000000 0.8117647059 0.9490196078
0.0000000000 0.8000000000 0.9490196078
0.1176470588 0.7686274510 0.9450980392
0.7764705882 0.7294117647 0.9450980392
1.0000000000 0.6941176471 0.9411764706
0.0000000000 1.0000000000 0.8980392157
0.0000000000 1.0000000000 0.8980392157
0.0000000000 0.9803921569 0.8941176471
0.6392156863 0.9490196078 0.8901960784
0.9490196078 0.9254901961 0.8862745098
